X:87
T: Octopus Curry
M:C|
L:1/8
C: Noel Jackson. Nov 2010
S:Noel <noelbats@onetel.com> tradtunes 2010-11-24
K: Em
|: "G"GedB  "D"A2BA |"Em"EGAB    dege | "G"GedB "D"A2BA |"Em"EE2D    E4   |
   "G"GedB  "D"A2BA |"Em"EGAB    dege | "G"dedB "D"ABAG |"Em"EE2D    E4  :|
|:"Em"edBd     egag |"Em"edBG "D"A2GA |"Em"Bdeg    ageg |"Em"aa2g "D"a2ga |
   "G"bage "Em"dBAG |"Am"ABAG "C"E2DE | "G"GedB "D"A2BA |"Em"EE2D    E4  :|
